src/assets/icons/svg/tada.svg

<?xml version="1.0" encoding="UTF-8"?>
<svg width="175px" height="175px" viewBox="0 0 175 175" version="1.1" xmlns="http://www.w3.org/2000/svg" xmlns:xlink="http://www.w3.org/1999/xlink">
    <!-- Generator: Sketch 58 (84663) - https://sketch.com -->
    <title>Group</title>
    <desc>Created with Sketch.</desc>
    <g id="MVP" stroke="none" stroke-width="1" fill="none" fill-rule="evenodd">
        <g id="Rekisteröidy-palvelun-käyttäjäksi-hki-profiili-Copy" transform="translate(-654.000000, -282.000000)" stroke="#000000">
            <g id="Group" transform="translate(629.000000, 262.842631)">
                <g id="Group-7" transform="translate(0.000000, 77.604065)" fill="#FFFFFF" stroke-width="8">
                    <g id="Group-5" transform="translate(71.223109, 71.286976) rotate(45.000000) translate(-71.223109, -71.286976) translate(26.223109, 16.786976)">
                        <path d="M38.2383314,105.972702 L20.548873,65.9562347 L20.548873,65.9562347 L-0.176705055,19.0715655 C-1.7397737,15.5356469 -0.140462837,11.402101 3.39545574,9.83903237 C4.28695188,9.44494251 5.25092543,9.24137931 6.22564189,9.24137931 L83.0557149,9.24137931 C86.9217081,9.24137931 90.0557149,12.3753861 90.0557149,16.2413793 C90.0557149,17.2160958 89.8521517,18.1800693 89.4580618,19.0715655 L51.0430253,105.972702 C49.4799567,109.50862 45.3464108,111.107931 41.8104922,109.544862 C40.2166405,108.840293 38.9429008,107.566553 38.2383314,105.972702 Z" id="Combined-Shape-Copy-2"></path>
                        <ellipse id="Oval" cx="44.7233658" cy="14.4650968" rx="43.9871795" ry="13.8793103"></ellipse>
                    </g>
                </g>
                <g id="Group-9" transform="translate(135.044089, 87.000000) rotate(43.000000) translate(-135.044089, -87.000000) translate(64.544089, 34.000000)" stroke-linecap="round" stroke-width="6">
                    <path d="M79.775324,99.1239405 C78.6957392,78.2767183 87.3324174,65.6100516 105.685359,61.1239405" id="Path-3"></path>
                    <path d="M30.7718638,105.123941 C29.7338015,84.2767183 38.0382998,71.6100516 55.6853586,67.1239405" id="Path-3" transform="translate(43.185359, 86.123941) scale(-1, 1) translate(-43.185359, -86.123941) "></path>
                    <path d="M121.685359,69.0132677 L106.533046,76.97931 L109.42688,60.1069617 L97.1684014,48.1578982 L114.109202,45.6962558 L121.685359,30.3452861 L129.261515,45.6962558 L146.202316,48.1578982 L133.943837,60.1069617 L136.837671,76.97931 L121.685359,69.0132677 Z" id="Star" fill="#FFC61E"></path>
                    <path d="M14.2741123,65.5557662 L1.64540335,72.2874242 L4.05600245,58.0370497 L-6.11018824,47.9896206 L7.94365724,45.9190711 L14.2741123,32.9137458 L20.6045674,45.9190711 L34.6584129,47.9896206 L24.4922222,58.0370497 L26.9028213,72.2874242 L14.2741123,65.5557662 Z" id="Star" fill="#FFC61E" transform="translate(14.274112, 53.268325) rotate(90.000000) translate(-14.274112, -53.268325) "></path>
                    <path d="M65.4711081,67.1164513 L54.4082565,73.2318452 L56.5164884,60.3073401 L47.7466083,51.318894 L59.8818669,49.4647915 L65.4711081,37.5569401 L71.0603493,49.4647915 L83.1956078,51.318894 L74.4257278,60.3073401 L76.5339596,73.2318452 L65.4711081,67.1164513 Z" id="Star-Copy-2" fill="#FFC61E" transform="translate(65.471108, 56.117470) rotate(90.000000) translate(-65.471108, -56.117470) "></path>
                    <path d="M89.6147566,24.750582 L77.9338711,31.2076167 L80.1601369,17.5595049 L70.8902569,8.0585976 L83.7164984,6.09892227 L89.6147566,-6.4672883 L95.5130148,6.09892227 L108.339256,8.0585976 L99.0693763,17.5595049 L101.295642,31.2076167 L89.6147566,24.750582 Z" id="Star" fill="#FFC61E" transform="translate(89.614757, 13.093242) rotate(90.000000) translate(-89.614757, -13.093242) "></path>
                </g>
            </g>
        </g>
    </g>
</svg>

<?xml version="1.0" encoding="UTF-8"?>
<svg version="1.1" viewBox="0 0 175 175" xmlns="http://www.w3.org/2000/svg"><g fill="none" fill-rule="evenodd"><g transform="translate(-654 -282)" stroke="#000"><g transform="translate(629 262.84)"><g transform="translate(0 77.604)" fill="#fff" stroke-width="8"><g transform="translate(71.223 71.287) rotate(45) translate(-45 -54.5)"><path d="m38.238 105.97-38.415-86.901c-1.5631-3.5359 0.036242-7.6695 3.5722-9.2325 0.8915-0.39409 1.8555-0.59765 2.8302-0.59765h76.83c3.866 0 7 3.134 7 7 0 0.97472-0.20356 1.9387-0.59765 2.8302l-38.415 86.901c-1.5631 3.5359-5.6966 5.1352-9.2325 3.5722-1.5939-0.70457-2.8676-1.9783-3.5722-3.5722z"/><ellipse cx="44.723" cy="14.465" rx="43.987" ry="13.879"/></g></g><g transform="translate(135.04 87) rotate(43) translate(-70.5 -53)" stroke-linecap="round" stroke-width="6"><path id="a" d="m79.775 99.124c-1.0796-20.847 7.5571-33.514 25.91-38"/><path transform="translate(43.185 86.124) scale(-1 1) translate(-43.185 -86.124)" d="m30.772 105.12c-1.0381-20.847 7.2664-33.514 24.913-38"/><path id="Star" d="m121.69 69.013-15.152 7.966 2.8938-16.872-12.258-11.949 16.941-2.4616 7.5762-15.351 7.5762 15.351 16.941 2.4616-12.258 11.949 2.8938 16.872-15.152-7.966z" fill="#FFC61E"/><path id="b" transform="translate(14.274 53.268) rotate(90) translate(-14.274 -53.268)" d="m14.274 65.556-12.629 6.7317 2.4106-14.25-10.166-10.047 14.054-2.0705 6.3305-13.005 6.3305 13.005 14.054 2.0705-10.166 10.047 2.4106 14.25-12.629-6.7317z" fill="#FFC61E"/><path transform="translate(65.471 56.117) rotate(90) translate(-65.471 -56.117)" d="m65.471 67.116-11.063 6.1154 2.1082-12.925-8.7699-8.9884 12.135-1.8541 5.5892-11.908 5.5892 11.908 12.135 1.8541-8.7699 8.9884 2.1082 12.925-11.063-6.1154z" fill="#FFC61E"/><path transform="translate(89.615 13.093) rotate(90) translate(-89.615 -13.093)" d="m89.615 24.751-11.681 6.457 2.2263-13.648-9.2699-9.5009 12.826-1.9597 5.8983-12.566 5.8983 12.566 12.826 1.9597-9.2699 9.5009 2.2263 13.648-11.681-6.457z" fill="#FFC61E"/></g></g></g></g></svg>
